Newaita-dark/actions/22/document-open-folder.svg

<svg height="22" viewBox="0 0 22 22" width="22" xmlns="http://www.w3.org/2000/svg"><g fill="#e0e0e0"><path d="m9.484375 2.902344c-.769531.003906-1.597656.046875-2.386719.4375-.769531.386718-1.347656 1.191406-1.554687 2.289062h-1.90625c-1.007813 0-1.816407.8125-1.816407 1.820313v10.003906c0 1.007813.808594 1.820313 1.816407 1.820313h14.554687c1.007813 0 1.820313-.8125 1.820313-1.820313v-8.066406c.011719-.082031.011719-.160157 0-.238281v-1.699219c0-1.007813-.8125-1.820313-1.820313-1.820313v2.734375h-8.1875c-.90625 0-1.699218-.050781-2.09375-.246093-.394531-.199219-.636718-.414063-.636718-1.578126 0-1.164062.242187-1.378906.636718-1.578124.394532-.195313 1.1875-.246094 2.09375-.246094.328125.003906.632813-.167969.796875-.449219.164063-.28125.164063-.628906 0-.910156-.164062-.285157-.46875-.457031-.796875-.449219-.167968 0-.34375-.003906-.519531-.003906zm-4.9375 4.546875h.996094c.207031 1.097656.785156 1.902343 1.554687 2.289062.972656.484375 2 .433594 2.90625.433594h8.1875v6.371094c0 .503906-.40625.910156-.910156.910156h-12.734375c-.503906 0-.910156-.40625-.910156-.910156v-8.183594c0-.503906.40625-.910156.910156-.910156zm0 0"/><path d="m10.003906 2.902344v1.816406h7.277344c.503906 0 .910156.40625.910156.910156v6.367188c1.007813 0 1.820313-.8125 1.820313-1.820313v-5.457031c0-1.007812-.8125-1.816406-1.820313-1.816406zm0 0"/></g></svg>

<?xml version="1.0" encoding="UTF-8"?>
<svg xmlns="http://www.w3.org/2000/svg" xmlns:xlink="http://www.w3.org/1999/xlink" width="22px" height="22px" viewBox="0 0 22 22" version="1.1">
<g id="surface1">
<path style=" stroke:none;fill-rule:nonzero;fill:rgb(87.843138%,87.843138%,87.843138%);fill-opacity:1;" d="M 9.484375 2.902344 C 8.714844 2.90625 7.886719 2.949219 7.097656 3.339844 C 6.328125 3.726562 5.75 4.53125 5.542969 5.628906 L 3.636719 5.628906 C 2.628906 5.628906 1.820312 6.441406 1.820312 7.449219 L 1.820312 17.453125 C 1.820312 18.460938 2.628906 19.273438 3.636719 19.273438 L 18.191406 19.273438 C 19.199219 19.273438 20.011719 18.460938 20.011719 17.453125 L 20.011719 9.386719 C 20.023438 9.304688 20.023438 9.226562 20.011719 9.148438 L 20.011719 7.449219 C 20.011719 6.441406 19.199219 5.628906 18.191406 5.628906 L 18.191406 8.363281 L 10.003906 8.363281 C 9.097656 8.363281 8.304688 8.3125 7.910156 8.117188 C 7.515625 7.917969 7.273438 7.703125 7.273438 6.539062 C 7.273438 5.375 7.515625 5.160156 7.910156 4.960938 C 8.304688 4.765625 9.097656 4.714844 10.003906 4.714844 C 10.332031 4.71875 10.636719 4.546875 10.800781 4.265625 C 10.964844 3.984375 10.964844 3.636719 10.800781 3.355469 C 10.636719 3.070312 10.332031 2.898438 10.003906 2.90625 C 9.835938 2.90625 9.660156 2.902344 9.484375 2.902344 Z M 4.546875 7.449219 L 5.542969 7.449219 C 5.75 8.546875 6.328125 9.351562 7.097656 9.738281 C 8.070312 10.222656 9.097656 10.171875 10.003906 10.171875 L 18.191406 10.171875 L 18.191406 16.542969 C 18.191406 17.046875 17.785156 17.453125 17.28125 17.453125 L 4.546875 17.453125 C 4.042969 17.453125 3.636719 17.046875 3.636719 16.542969 L 3.636719 8.359375 C 3.636719 7.855469 4.042969 7.449219 4.546875 7.449219 Z M 4.546875 7.449219 "/>
<path style=" stroke:none;fill-rule:nonzero;fill:rgb(87.843138%,87.843138%,87.843138%);fill-opacity:1;" d="M 10.003906 2.902344 L 10.003906 4.71875 L 17.28125 4.71875 C 17.785156 4.71875 18.191406 5.125 18.191406 5.628906 L 18.191406 11.996094 C 19.199219 11.996094 20.011719 11.183594 20.011719 10.175781 L 20.011719 4.71875 C 20.011719 3.710938 19.199219 2.902344 18.191406 2.902344 Z M 10.003906 2.902344 "/>
</g>
</svg>
